svg/file-icons/Avro.svg

<svg version="1.1" xmlns="http://www.w3.org/2000/svg" width="512px" height="512px"><path d="M170.9166718,303.5716248h-6.3434143l3.6592865-15.4963379L170.9166718,303.5716248z M218.8455811,213.5928802l-33.913559,23.5172119c-31.1960449-30.8488617-81.2675323-3.1053467-145.2770691-31.9548035C93.3752365,217.9668427,165.2050171,190.4436493,218.8455811,213.5928802z M41.507412,216.2485046c31.3597527,11.6936951,61.8402748,16.1368408,94.2273254,14.637085c3.532959,1.5762024,6.3384247,5.025116,7.9463043,8.3107758C83.2808075,245.1385193,56.1074982,227.0393372,41.507412,216.2485046z M55.065773,235.0347137c28.7842484,11.0475769,54.8858032,17.5724792,92.0536423,11.0556946c0,0,5.5098114,4.4309998,5.6616974,6.7336273C102.8288574,262.1323242,83.3560562,254.0166931,55.065773,235.0347137z M154.5848541,260.4429626c-27.0015335,14.4509277-62.4778137,10.5010071-70.6221008-0.3462524C113.2743454,265.8982849,132.4330139,264.8733521,154.5848541,260.4429626z M472.3450317,205.1552887c-64.0095215,28.8494568-114.0809937,1.1059418-145.2770691,31.9548035l-33.9135437-23.5172119C346.7949829,190.4436493,418.6247559,217.9668427,472.3450317,205.1552887z M368.3189697,239.1963654c1.6078491-3.2856598,4.4133301-6.7345734,7.9462891-8.3107758c32.3870544,1.4997559,62.8675842-2.9433899,94.2273254-14.637085C455.8924866,227.0393372,428.7191772,245.1385193,368.3189697,239.1963654z M359.2189026,252.8240356c0.1518555-2.3026276,5.6616821-6.7336273,5.6616821-6.7336273c37.1678467,6.5167847,63.2694092-0.0081177,92.0536499-11.0556946C428.6439514,254.0166931,409.1711426,262.1323242,359.2189026,252.8240356z M428.0372314,260.0967102c-8.1442566,10.8472595-43.6205444,14.7971802-70.6220703,0.3462524C379.5669861,264.8733521,398.725647,265.8982849,428.0372314,260.0967102z M147.200531,318.4972839H98.5958633l60.1032944-40.2190247L147.200531,318.4972839z M160.4175568,318.6604004l1.1250458-4.9533691h11.9914246l0.9812164,4.9533691H160.4175568z M188.313858,318.7701111l-14.460022-50.5827637l19.1638641-13.2352905l19.4450531,63.8180542H188.313858z M204.6478271,247.2284851l30.4465485-20.629837l-16.4526672,67.7667084L204.6478271,247.2284851z M253.7590179,318.4410706h-28.5545197l25.1634216-101.9699707l3.391098-1.8646088V318.4410706z M265.9705505,231.2693634c26.1529541,24.8579559,29.0218811,36.2529755,0,37.4115753V231.2693634z M266.1350708,318.6604004l0.0457153-32.8504639l22.7686462,32.8504639H266.1350708z M303.3546143,318.6604614l-25.885498-38.5541382c24.888092-5.7815857,29.032196-22.2648621,8.0982971-47.4201813c15.4289856,10.7308044,31.2601318,20.6023712,46.5062256,31.5708466c-21.4282227,8.25177-28.3660889,39.4024353-2.9248962,54.4034729H303.3546143z M327.5838623,299.824646c-9.6418152-18.7802429,16.5372925-37.2362671,22.4780273-10.3950806C352.002594,305.8769226,335.5267639,315.1841736,327.5838623,299.824646z M413.2036438,318.3862305h-67.6387329c13.1238403-6.0935974,19.9207764-20.7961731,16.0321655-34.733429L413.2036438,318.3862305z M228.8423615,207.4038544c-82.2901154-38.0720673-170.9747162,24.8318329-228.8135986-31.28479c-1.0730497,20.5549622,28.1535645,39.9732208,40.8692474,58.2854156c7.2502403,13.105545,21.7937393,25.1950989,34.6603279,31.1321106c8.1796494,14.3679504,17.7301865,13.0007019,45.848114,13.6740112l-83.1773682,56.6703186h435.8859253l-83.5214844-56.6703186c28.1179504-0.6733093,37.6684875,0.6939392,45.848114-13.6740112c12.8666077-5.9370117,27.4100952-18.0265656,34.6603394-31.1321106c12.7156677-18.3121948,41.9423218-37.7304535,40.8692322-58.2854156c-57.8388672,56.1166229-146.4976501-6.7872772-228.7877808,31.28479l-27.1759338-18.0796509L228.8423615,207.4038544z"/></svg>

<svg xmlns="http://www.w3.org/2000/svg" width="512" height="512"><path d="M170.917 303.572h-6.344l3.66-15.497 2.684 15.497zm47.929-89.98-33.914 23.518c-31.196-30.849-81.268-3.105-145.277-31.955 53.72 12.812 125.55-14.711 179.19 8.438zM41.507 216.25c31.36 11.693 61.84 16.136 94.228 14.637 3.533 1.576 6.338 5.025 7.946 8.31-60.4 5.943-87.574-12.157-102.174-22.947zm13.559 18.786c28.784 11.047 54.886 17.572 92.053 11.055 0 0 5.51 4.431 5.662 6.734-49.952 9.308-69.425 1.193-97.715-17.79zm99.519 25.408c-27.002 14.45-62.478 10.501-70.622-.346 29.311 5.801 48.47 4.776 70.622.346zm317.76-55.288c-64.01 28.85-114.081 1.106-145.277 31.955l-33.914-23.517c53.641-23.15 125.47 4.374 179.191-8.438zm-104.026 34.041c1.608-3.285 4.413-6.734 7.946-8.31 32.387 1.5 62.868-2.944 94.228-14.637-14.6 10.79-41.774 28.89-102.174 22.947zm-9.1 13.628c.152-2.303 5.662-6.734 5.662-6.734 37.167 6.517 63.269-.008 92.053-11.055-28.29 18.982-47.763 27.097-97.715 17.789zm68.818 7.273c-8.144 10.847-43.62 14.797-70.622.346 22.152 4.43 41.31 5.455 70.622-.346zm-280.836 58.4H98.596l60.103-40.219-11.498 40.22zm13.217.163 1.125-4.953h11.991l.981 4.953h-14.097zm27.896.11-14.46-50.583 19.164-13.235 19.445 63.818h-24.15zm16.334-71.542 30.446-20.63-16.452 67.767-13.994-47.137zm49.111 71.213h-28.555l25.164-101.97 3.391-1.865v103.835zm12.212-87.172c26.153 24.858 29.021 36.253 0 37.412V231.27zm.164 87.391.046-32.85 22.768 32.85h-22.814zm37.22 0-25.886-38.554c24.888-5.781 29.032-22.265 8.098-47.42 15.43 10.73 31.26 20.603 46.507 31.571-21.429 8.252-28.366 39.402-2.925 54.403h-25.794zm24.229-18.835c-9.642-18.78 16.537-37.237 22.478-10.395 1.94 16.447-14.535 25.754-22.478 10.395zm85.62 18.561h-67.64c13.125-6.093 19.922-20.796 16.033-34.733l51.607 34.733zM228.842 207.404C146.552 169.332 57.868 232.236.03 176.119c-1.073 20.555 28.153 39.973 40.869 58.285 7.25 13.106 21.794 25.196 34.66 31.133 8.18 14.368 17.73 13 45.848 13.674L38.23 335.88h435.886l-83.521-56.67c28.117-.674 37.668.694 45.848-13.674 12.866-5.937 27.41-18.027 34.66-31.133 12.716-18.312 41.942-37.73 40.87-58.285-57.84 56.117-146.498-6.787-228.789 31.285l-27.176-18.08-27.165 18.08z"/></svg>
